!!!OTL: Frisch auf, in Gottes Namen!
!!!ARE: Europa, Mitteleuropa, Deutschland
!!!SCT: A0398B
!!!YEM: Copyright 1995, estate of Helmut Schaffrath.
**kern
*ICvox
*Ivox
*M4/4
*k[f#]
*G:
{4dd
=1
4dd
4dd
4dd
4dd
=2
2a
4a}
{4dd
=3
4cc
4b
4a
4a
=4
2g
4r}
{4dd
=5
4dd
4dd
4dd
4dd
=6
2a
4a}
{4dd
=7
4cc
4b
4a
4a
=8
2g
4r}
{4dd
=9
4dd
4dd
4ee
4cc
=10
2dd
4b}
{4ee
=11
4dd
4cc
4b
4b
=12
2a
4r}
{4a
=13
4dd
4dd
4b
4b
=14
2cc
4a}
{4a
=15
4dd
4dd
4b
4b
=16
2cc
4a
4dd
=17
4cc
4b
4a
4a
=18
2g
4r}
==
!!!AGN: Romanze, Ballade, Lied, religioeses Lied
!! Werlin (Hs. von 1646) S. 2951. Entstanden 1540
!!!ONB: ESAC (Essen Associative Code) Database: ALTDEU
!!!AMT: simple quadruple
!!!AIN: vox
!!!EED: Helmut Schaffrath
!!!EEV: 1.0
*-
